plasma/desktoptheme/Materia-Color/icons/kget.svg

<svg xmlns="http://www.w3.org/2000/svg" width="32" height="32" version="1.1">
 <defs id="materia">
  <style id="current-color-scheme" type="text/css">
   .ColorScheme-Background {color:#181818; } .ColorScheme-ButtonBackground { color:#343434; } .ColorScheme-Highlight { color:#4285f4; } .ColorScheme-Text { color:#dfdfdf; } .ColorScheme-ViewBackground { color:#242424; } .ColorScheme-NegativeText { color:#f44336; } .ColorScheme-PositiveText { color:#4caf50; } .ColorScheme-NeutralText { color:#ff9800; }
  </style>
 </defs>
 <g id="22-22-kget" transform="translate(32,10)">
  <path style="opacity:0.001" d="m 0.25,0 h 21.5 C 21.8885,0 22,0.111499 22,0.250001 V 21.75 C 22,21.8885 21.88849,22 21.75,22 H 0.25 C 0.1115,22 0,21.888501 0,21.75 V 0.250001 C 0,0.1115 0.11151,0 0.25,0 Z"/>
  <path style="fill:currentColor" class="ColorScheme-Text" d="m 11,3 a 8,8 0 0 0 -8,8 8,8 0 0 0 8,8 8,8 0 0 0 8,-8 8,8 0 0 0 -8,-8 z m -1,2 h 2 v 5 h 2.5 L 12.75,12.5 11,15 h 4 v 1 H 7 v -1 h 4 L 9.25,12.5 7.5,10 H 10 Z"/>
 </g>
 <g id="kget">
  <path style="opacity:0.001" d="M 0.36363638,0 H 31.636365 c 0.201454,0 0.363636,0.16218037 0.363636,0.36363783 V 31.636365 c 0,0.201454 -0.162196,0.363636 -0.363636,0.363636 H 0.36363638 C 0.16218182,32.000001 0,31.837821 0,31.636365 V 0.36363783 C 0,0.16218182 0.16219637,0 0.36363638,0 Z"/>
  <path style="fill:currentColor" class="ColorScheme-Text" d="M 16 4 A 12 12 0 0 0 4 16 A 12 12 0 0 0 16 28 A 12 12 0 0 0 28 16 A 12 12 0 0 0 16 4 z M 14 7 L 18 7 L 18 15 L 21.25 15 L 16 22 L 22 22 L 22 24 L 10 24 L 10 22 L 16 22 L 10.75 15 L 14 15 L 14 7 z"/>
 </g>
</svg>

<?xml version="1.0" encoding="UTF-8"?>
<svg width="32" height="32" version="1.1" xmlns="http://www.w3.org/2000/svg">
 <defs id="materia">
  <style id="current-color-scheme" type="text/css">.ColorScheme-Background {color:#181818; } .ColorScheme-ButtonBackground { color:#343434; } .ColorScheme-Highlight { color:#4285f4; } .ColorScheme-Text { color:#dfdfdf; } .ColorScheme-ViewBackground { color:#242424; } .ColorScheme-NegativeText { color:#f44336; } .ColorScheme-PositiveText { color:#4caf50; } .ColorScheme-NeutralText { color:#ff9800; }</style>
 </defs>
 <g id="22-22-kget" transform="translate(32,10)">
  <path d="m0.25 0h21.5c0.1385 0 0.25 0.1115 0.25 0.25v21.5c0 0.1385-0.11151 0.25-0.25 0.25h-21.5c-0.1385 0-0.25-0.1115-0.25-0.25v-21.5c0-0.1385 0.11151-0.25 0.25-0.25z" opacity=".001"/>
  <path class="ColorScheme-Text" d="m11 3a8 8 0 0 0-8 8 8 8 0 0 0 8 8 8 8 0 0 0 8-8 8 8 0 0 0-8-8zm-1 2h2v5h2.5l-3.5 5h4v1h-8v-1h4l-3.5-5h2.5z" fill="currentColor"/>
 </g>
 <g id="kget">
  <path d="m0.36364 0h31.273c0.20145 0 0.36364 0.16218 0.36364 0.36364v31.273c0 0.20145-0.1622 0.36364-0.36364 0.36364h-31.273c-0.20145 0-0.36364-0.16218-0.36364-0.36364v-31.273c0-0.20146 0.1622-0.36364 0.36364-0.36364z" opacity=".001"/>
  <path class="ColorScheme-Text" d="m16 4a12 12 0 0 0-12 12 12 12 0 0 0 12 12 12 12 0 0 0 12-12 12 12 0 0 0-12-12zm-2 3h4v8h3.25l-5.25 7h6v2h-12v-2h6l-5.25-7h3.25v-8z" fill="currentColor"/>
 </g>
</svg>
